context/brand-context/default/img/icons/info.svg

<svg id="i-info" viewBox="0 0 18 18" xmlns="http://www.w3.org/2000/svg"><path d="m9 0c4.9705627 0 9 4.02943725 9 9 0 4.9705627-4.0294373 9-9 9-4.97056275 0-9-4.0294373-9-9 0-4.97056275 4.02943725-9 9-9zm0 7h-1.5l-.11662113.00672773c-.49733868.05776511-.88337887.48043643-.88337887.99327227 0 .47338693.32893365.86994729.77070917.97358929l.1126697.01968298.11662113.00672773h.5v3h-.5l-.11662113.0067277c-.42082504.0488782-.76196299.3590206-.85696816.7639815l-.01968298.1126697-.00672773.1166211.00672773.1166211c.04887817.4208251.35902055.761963.76398144.8569682l.1126697.019683.11662113.0067277h3l.1166211-.0067277c.4973387-.0577651.8833789-.4804365.8833789-.9932723 0-.4733869-.3289337-.8699473-.7707092-.9735893l-.1126697-.019683-.1166211-.0067277h-.5v-4l-.00672773-.11662113c-.04887817-.42082504-.35902055-.76196299-.76398144-.85696816l-.1126697-.01968298zm0-3.25c-.69035594 0-1.25.55964406-1.25 1.25s.55964406 1.25 1.25 1.25 1.25-.55964406 1.25-1.25-.55964406-1.25-1.25-1.25z" fill="currentColor" fill-rule="evenodd"/></svg>

<svg id="i-info" viewBox="0 0 18 18" xmlns="http://www.w3.org/2000/svg"><path d="M9 0a9 9 0 1 1 0 18A9 9 0 0 1 9 0zm0 7H7.5l-.117.007a1 1 0 0 0-.112 1.967l.112.02L7.5 9H8v3h-.5l-.117.007a1 1 0 0 0-.857.764l-.02.112L6.5 13l.007.117a1 1 0 0 0 .764.857l.112.02L7.5 14h3l.117-.007a1 1 0 0 0 .112-1.967l-.112-.02L10.5 12H10V8l-.007-.117a1 1 0 0 0-.764-.857l-.112-.02zm0-3.25a1.25 1.25 0 1 0 0 2.5 1.25 1.25 0 0 0 0-2.5z" fill="currentColor" fill-rule="evenodd"/></svg>
